X:48
T:Lonnie's Hornpipe
M:2/4
L:1/16
Z: Jason R. Fruit <Jason R. Fruit@big-mac>
N: From Bob Walters' playing, 1950, learned from Lonnie Robertson, early 1940s.  Christeson's note refers to a key change that does not occur, the entire tune being notated in F without accidentals; as the first half is clearly in Bb and needs E-flats, I've supplied the key change at the midpoint.
K:Bb
dc | B2FD B,2DF | BABd fdBd | cAFA cBAc | B2bg fedc |
B2FD B,2DF | BABd fdBd | cAFA cBAc | B2d2 B2 :|
K:F
|: AB | cAFA cBAc | fcAc f2ef | gece gfeg | fefa gfed |
cAFA cBAc | fcAc f2af | gece gfeg | f2a2 f2 :|

